X:1
T:Croydon, 98.98.98 D
T:Croydon, 98.98.98 D
T:Daniel Franklin Hodges, 1880
T:Public Domain Courtesy of the Cyber Hymnal™
C:Daniel Franklin Hodges, 1880
Z:Public Domain
Z:Courtesy of the Cyber Hymnal™
%%score ( 1 2 ) ( 3 4 )
L:1/8
Q:1/4=90
M:6/8
K:C
V:1 treble 
V:2 treble 
V:3 bass 
V:4 bass 
V:1
 [EG] | [EG][^D^F][EG] [=FA][EG][CE] | [DF]3 [CE]2 [CG] | [B,G][B,D][B,D] [B,D][CE][DF] | %4
 [CE]3- [CE]2 [EG] | [Ec][FB][Gc] [Fd][Fc][FA] | [EG]3 [Ec]2 [Ec] | [DB][B,D][DG] [DA][DG][D^F] | %8
 [DG]3- [DG]2 G | [Fd][Fc][FB] [FB][FA][FB] | [Ec]3 [EG]2 [EG] | [FA]>[F^G][FA] [Ac][=GB][FA] | %12
 [EG]3- [EG]2 [EG] | [EG][^D^F][EG] [Ge][G=d][Gc] | [Fd]3 ([Ac][GB])[FA] | %15
 [EG][Ec][Ec] [DB][Ec][Fd] | [Ec]3- [Ec]2 [EG]3 [EG][CE][Ec] | [DB][B,D][CE] [DF]2 z | %18
 [DF]3 [DF][B,D][FA] | [FA][EG][D^F] [EG]2 z | [Ge]3 [Ge][Gd][Gc] | [Fd][Fc][FA] [Ac]2 z | %22
 [Gc][GB][GA] [FG][FA][FB] | [Ec]3- [Ec]2 |] %24
V:2
 x | x6 | x6 | x6 | x6 | x6 | x6 | x6 | x5 G | x6 | x6 | x6 | x6 | x6 | x6 | x6 | x11 | x6 | x6 | %19
 x6 | x6 | x6 | x6 | x5 |] %24
V:3
 [C,C] | [C,C][C,C][C,C] [C,C][C,C][C,G,] | [B,,G,]3 [C,G,]2 [E,G,] | %3
 G,G,G, [G,,G,][G,,G,][G,,G,] | [C,G,]3- [C,G,]2 [C,G,] | [C,G,][D,G,][E,G,] [F,A,][F,A,][F,C] | %6
 [C,C]3 [C,G,]2 [C,G,] | [D,G,][D,G,][D,B,] [D,C][D,B,][D,A,] | [G,B,]3- [G,B,]2 [G,B,] | %9
 [G,B,][G,D][G,D] [G,D][G,D][G,D] | [C,C]3 [C,C]2 [C,C] | [F,C]>[F,C][F,C] [F,C][F,C][F,C] | %12
 [C,C]3- [C,C]2 [C,C] | [C,C][C,C][C,C] [C,C][D,B,][E,B,_C] | [F,A,]3 [F,C]2 [F,C] | %15
 [G,C]G,G, [G,,G,][G,,G,][G,,G,] | [C,G,]3- [C,G,]2 [C,G,]2 z [C,G,][C,G,][C,G,] | G,G,G, G,2 z | %18
 [G,B,]2 z [G,B,][G,B,][G,B,] | [C,C][C,C][C,C] [C,C]2 z | [C,C]2 z [C,C][D,B,][E,_B,] | %21
 [F,A,][F,A,][F,C] [F,C]2 z | [G,E][G,D][G,C] [G,,B,][G,,C][G,,D] | [C,C]3- [C,C]2 |] %24
V:4
 x | x6 | x6 | G,G,G, x3 | x6 | x6 | x6 | x6 | x6 | x6 | x6 | x6 | x6 | x6 | x6 | x G,G, x3 | x11 | %17
 G,G,G, G,2 x | x6 | x6 | x6 | x6 | x6 | x5 |] %24

